app/assets/v2/images/mission/interact/scale.svg

<svg xmlns="http://www.w3.org/2000/svg" viewBox="0 0 64.42 64.37"><defs><style>.cls-1{fill:#00ed92}</style></defs><g id="Layer_2" data-name="Layer 2"><g id="Layer_2-2" data-name="Layer 2"><path class="cls-1" d="M14.26 38.07c-4 0-7.37-2.41-8.31-5.5h16.63c-.94 3.09-4.43 5.5-8.32 5.5zM56.1 37.94c-4 0-7.37-2.42-8.31-5.5h16.63c-.81 3.08-4.29 5.5-8.32 5.5z"/><path d="M64.23 28.7l-9.12-26h3.22a1.26 1.26 0 0 0 1.34-1.34A1.26 1.26 0 0 0 58.33 0H6.17a1.26 1.26 0 0 0-1.34 1.34 1.26 1.26 0 0 0 1.34 1.34h3.22L.13 28.83c-.13 0-.13.54-.13.54.13 5.36 5.1 9.52 11.26 9.52s11-4.16 11.27-9.52c0 0 0-.4-.14-.54L13.14 2.68H31v5.77h-.14a1.34 1.34 0 0 0-1.36 1.34l-1.21 45.06H15.42a1.26 1.26 0 0 0-1.34 1.34V63a1.27 1.27 0 0 0 1.34 1.34h33.66A1.27 1.27 0 0 0 50.42 63v-7a1.27 1.27 0 0 0-1.34-1.34H36.21L35.13 9.65a1.44 1.44 0 0 0-1.34-1.34h-.27V2.55h17.71L42 28.56a3 3 0 0 1-.13.54c.13 5.36 5.09 9.52 11.26 9.52s11-4.16 11.27-9.52c-.03.13-.03-.4-.17-.4zm-16.49 33h-31v-4.31h31zM31 54.71L32.05 11h.4l1.07 43.71zm30.15-26.95h-16l7.95-22.4zM11.26 5.36l7.92 22.53h-16zm0 30.71c-4 0-7.37-2.41-8.31-5.5h16.63c-.94 3.09-4.43 5.5-8.32 5.5zm41.84-.13c-4 0-7.37-2.42-8.31-5.5h16.63c-.81 3.08-4.29 5.5-8.32 5.5z" fill="#180041"/></g></g></svg>

<svg xmlns="http://www.w3.org/2000/svg" viewBox="0 0 64.42 64.37"><defs><style>.cls-1{fill:#00ed92;}.cls-2{fill:#180041;}</style></defs><title>scale</title><g id="Layer_2" data-name="Layer 2"><g id="Layer_2-2" data-name="Layer 2"><path class="cls-1" d="M14.26,38.07c-4,0-7.37-2.41-8.31-5.5H22.58C21.64,35.66,18.15,38.07,14.26,38.07Z"/><path class="cls-1" d="M56.1,37.94c-4,0-7.37-2.42-8.31-5.5H64.42C63.61,35.52,60.13,37.94,56.1,37.94Z"/><path class="cls-2" d="M64.23,28.7l-9.12-26h3.22a1.26,1.26,0,0,0,1.34-1.34A1.26,1.26,0,0,0,58.33,0H6.17A1.26,1.26,0,0,0,4.83,1.34,1.26,1.26,0,0,0,6.17,2.68H9.39L.13,28.83c-.13,0-.13.54-.13.54.13,5.36,5.1,9.52,11.26,9.52s11-4.16,11.27-9.52c0,0,0-.4-.14-.54L13.14,2.68H31V8.45h-.14A1.34,1.34,0,0,0,29.5,9.79L28.29,54.85H15.42a1.26,1.26,0,0,0-1.34,1.34V63a1.27,1.27,0,0,0,1.34,1.34H49.08A1.27,1.27,0,0,0,50.42,63v-7a1.27,1.27,0,0,0-1.34-1.34H36.21L35.13,9.65a1.44,1.44,0,0,0-1.34-1.34h-.27V2.55H51.23L42,28.56a3,3,0,0,1-.13.54c.13,5.36,5.09,9.52,11.26,9.52s11-4.16,11.27-9.52C64.37,29.23,64.37,28.7,64.23,28.7Zm-16.49,33h-31V57.39h31ZM31,54.71,32.05,11h.4l1.07,43.71ZM61.15,27.76h-16L53.1,5.36ZM11.26,5.36l7.92,22.53h-16Zm0,30.71c-4,0-7.37-2.41-8.31-5.5H19.58C18.64,33.66,15.15,36.07,11.26,36.07Zm41.84-.13c-4,0-7.37-2.42-8.31-5.5H61.42C60.61,33.52,57.13,35.94,53.1,35.94Z"/></g></g></svg>
